assets/js/back-end/assets/icons/sortable-question.svg

<svg clip-rule="evenodd" fill-rule="evenodd" stroke-linejoin="round" stroke-miterlimit="2" viewBox="0 0 28 28" xmlns="http://www.w3.org/2000/svg"><path d="m3.593 3.475h21.773v21.371h-21.773z" fill="#ebebeb"/><path d="m28 3c0-1.656-1.344-3-3-3h-22c-1.656 0-3 1.344-3 3v22c0 1.656 1.344 3 3 3h22c1.656 0 3-1.344 3-3zm-17.333 14.333h-2.834l4.25 4.25v-14.166h-1.416zm4.25-9.916v14.166h1.416v-9.916h2.834z" fill="#3ad0ae"/></svg>

<?xml version="1.0" encoding="UTF-8" standalone="no"?>
<!DOCTYPE svg PUBLIC "-//W3C//DTD SVG 1.1//EN" "http://www.w3.org/Graphics/SVG/1.1/DTD/svg11.dtd">
<svg width="100%" height="100%" viewBox="0 0 28 28" version="1.1" xmlns="http://www.w3.org/2000/svg" xmlns:xlink="http://www.w3.org/1999/xlink" xml:space="preserve" xmlns:serif="http://www.serif.com/" style="fill-rule:evenodd;clip-rule:evenodd;stroke-linejoin:round;stroke-miterlimit:2;">
    <path d="M28,3C28,1.344 26.656,0 25,0L3,0C1.344,0 0,1.344 0,3L0,25C0,26.656 1.344,28 3,28L25,28C26.656,28 28,26.656 28,25L28,3ZM10.667,17.333L7.833,17.333L12.083,21.583L12.083,7.417L10.667,7.417L10.667,17.333ZM14.917,7.417L14.917,21.583L16.333,21.583L16.333,11.667L19.167,11.667L14.917,7.417Z" style="fill:rgb(58,208,174);"/>
</svg>
